packages/core/src/svgs/vemp.svg

<svg width="24" height="24" viewBox="0 0 24 24" fill="none" xmlns="http://www.w3.org/2000/svg">
<g clip-path="url(#clip0_31_20363)">
<path d="M0 0H24V24H0V0Z" fill="url(#paint0_linear_31_20363)"/>
<path d="M18.0001 6.42871H6.0001V6.85728H18.0001V6.42871ZM18.0001 17.143H6.0001V17.5716H18.0001V17.143ZM17.7901 7.28585H12.0001V7.50871H12.2187C12.8358 7.50871 13.2858 8.00585 13.2858 8.623V15.343C13.2858 15.9601 12.8358 16.4916 12.2187 16.4916H12.0001V16.7144H17.7901L18.6172 14.5716H18.3687L18.1715 14.9659C17.983 15.3474 17.6953 15.6712 17.3387 15.9034C16.9821 16.1356 16.5696 16.2677 16.1444 16.2859H14.143V12.223H16.2515C16.6201 12.223 16.9201 12.523 16.9201 12.8916V13.1144H17.143V10.8859H16.9201V11.1087C16.9201 11.4773 16.6201 11.7773 16.2515 11.7773H14.143V7.71443H16.6758C17.1687 7.71443 17.5715 8.13014 17.5715 8.623V9.00014H17.7901V7.28585ZM5.57153 12.0001H7.28582V12.1287C7.0501 12.1287 6.9001 12.3687 6.99439 12.583L8.41725 15.7116L9.78868 12.6859C9.81595 12.6257 9.82768 12.5597 9.8228 12.4939C9.81793 12.428 9.79659 12.3645 9.76076 12.309C9.72493 12.2536 9.67575 12.208 9.61773 12.1765C9.5597 12.145 9.4947 12.1286 9.42868 12.1287V12.0001H11.143V12.1287C10.7572 12.1287 10.4058 12.3559 10.243 12.7073L8.41296 16.7144H8.24153L6.41153 12.6687C6.33866 12.5072 6.22054 12.3702 6.07147 12.2744C5.9224 12.1785 5.74875 12.1279 5.57153 12.1287V12.0001Z" fill="white"/>
</g>
<defs>
<linearGradient id="paint0_linear_31_20363" x1="4.46571" y1="4.16143" x2="29.2071" y2="32.58" gradientUnits="userSpaceOnUse">
<stop stop-color="#1A1E21"/>
<stop offset="1" stop-color="#06060A"/>
</linearGradient>
<clipPath id="clip0_31_20363">
<rect width="24" height="24" fill="white"/>
</clipPath>
</defs>
</svg>

<svg xmlns="http://www.w3.org/2000/svg" width="24" height="24" fill="none" viewBox="0 0 24 24"><g clip-path="url(#a)"><path fill="url(#b)" d="M0 0h24v24H0z"/><path fill="#fff" d="M18 6.429H6v.428h12zm0 10.714H6v.429h12zm-.21-9.857H12v.223h.219c.617 0 1.067.497 1.067 1.114v6.72c0 .617-.45 1.149-1.067 1.149H12v.222h5.79l.827-2.142h-.248l-.197.394a2.37 2.37 0 0 1-2.028 1.32h-2.001v-4.063h2.108c.37 0 .67.3.67.669v.222h.222v-2.228h-.223v.223a.67.67 0 0 1-.669.668h-2.108V7.714h2.533a.91.91 0 0 1 .896.909V9h.218zM5.572 12h1.714v.129a.32.32 0 0 0-.292.454l1.423 3.129 1.372-3.026a.395.395 0 0 0-.36-.557V12h1.714v.129a1 1 0 0 0-.9.578l-1.83 4.007h-.171l-1.83-4.045a.92.92 0 0 0-.84-.54z"/></g><defs><linearGradient id="b" x1="4.466" x2="29.207" y1="4.161" y2="32.58" gradientUnits="userSpaceOnUse"><stop stop-color="#1A1E21"/><stop offset="1" stop-color="#06060A"/></linearGradient><clipPath id="a"><path fill="#fff" d="M0 0h24v24H0z"/></clipPath></defs></svg>
